modules/open-iconic/icons/grid-two-up.svg

<svg xmlns="http://www.w3.org/2000/svg" width="8" height="8" viewBox="0 0 8 8">
  <path d="M0 0v3h3v-3h-3zm5 0v3h3v-3h-3zm-5 5v3h3v-3h-3zm5 0v3h3v-3h-3z" />
</svg>

<svg xmlns="http://www.w3.org/2000/svg" width="8" height="8"><path d="M0 0v3h3V0H0zm5 0v3h3V0H5zM0 5v3h3V5H0zm5 0v3h3V5H5z"/></svg>
